!!!COM: Music21
!!!OTL: A Pequerrecha
!!!OMV: pezas_polca_a-pequerrecha_a-pequerrecha-partitura.musicxml
**kern
*part1
*staff1
*I"Bagpipes
*I'Bag
*clefG^2
*k[]
*M2/4
=1
!LO:TX:a:t=Maestoso
*MM72
!LO:TX:a:t=[quarter]=72
16r
16ccLL
16ee
16ggJJ
8.cccL
16aaJk
=||
8.bbL
16ggJk
16aaLL
16bb
16aa
16ggJJ
=
16ffLL
16ff
16gg
16aaJJ
8.bbL
16ggJk
=
8.aaL
16bbJk
8cccL
[8ggJ
=
16ggLL]
16ee
16ff
16ggJJ
8.aaL
16ffJk
=
8.ggL
16eeJk
8ffL
8ddJ
!!linebreak:original
=
8.bbL
16cccJk
16bbLL
16ccc
16aa
16bbJJ
!!linebreak:original
=
16ggLL
16aa
16ff
16ggJJ
[4ee
=
16eeLL]
16cc
16ee
16ggJJ
8.cccL
16aaJk
=||
8.bbL
16ggJk
16aaLL
16bb
16aa
16ggJJ
=
16ffLL
16ff
16gg
16aaJJ
8.bbL
16ggJk
=
8.aaL
16bbJk
8cccL
[8ggJ
=
16ggLL]
16ee
16ff
16ggJJ
8.aaL
16ffJk
=
8.ggL
16eeJk
8ffL
8ddJ
!!linebreak:original
=
8.bbL
16cccJk
16bbLL
16ccc
16aa
16bbJJ
=
16ggLL
16aa
16ff
16ggJJ
[4ee
=
4ee]
8ggL
8ggJ
=||
16ggLL
16ff
16gg
16aaJJ
8ggL
[8ggJ
=
16ggLL]
16ee
16gg
16eeJJ
8ffL
[8ffJ
=
16ffLL]
16dd
16aa
16ffJJ
8ggL
[8ggJ
=
8ggL]
8eeJ
8ggL
8ggJ
!!linebreak:original
=
16ggLL
16ff
16gg
16aaJJ
8ggL
[8ggJ
=
16ggLL]
16ee
16gg
16eeJJ
8ffL
16ffL
16ggJJ
=
16ffLL
16ee
16dd
16ffJJ
[4ee
=
4ee]
8ggL
8ggJ
=||
16ggLL
16ff
16gg
16aaJJ
8ggL
[8ggJ
=
16ggLL]
16ee
16gg
16eeJJ
8ffL
[8ffJ
=
16ffLL]
16dd
16aa
16ffJJ
8ggL
[8ggJ
=
8ggL]
8eeJ
8ggL
8ggJ
!!linebreak:original
=
16ggLL
16ff
16gg
16aaJJ
8ggL
[8ggJ
=
16ggLL]
16ee
16gg
16eeJJ
8ffL
16ffL
16ggJJ
=
16ffLL
16ee
16dd
16ffJJ
[4ee
=
16eeLL]
16cc
16ee
16ggJJ
8.cccL
16aaJk
=||
16ffLL
16ee
16dd
16ffJJ
4ee
.
.
.
=
8ccc
==
*-
!!!system-decoration: s1,s2
